; generated by PrusaSlicer 2.0.0+win64 on 2019-08-28 at 22:24:24

; 

; external perimeters extrusion width = 0.60mm
; perimeters extrusion width = 0.60mm
; infill extrusion width = 0.45mm
; solid infill extrusion width = 0.45mm
; top infill extrusion width = 0.40mm
; first layer extrusion width = 0.60mm

M73 P0 R44
M73 Q0 S44
M201 X1000 Y1000 Z1000 E5000 ; sets maximum accelerations, mm/sec^2
M203 X200 Y200 Z12 E120 ; sets maximum feedrates, mm/sec
M204 P1250 R1250 T1250 ; sets acceleration (P, T) and retract acceleration (R), mm/sec^2
M205 X8.00 Y8.00 Z0.40 E1.50 ; sets the jerk limits, mm/sec
M205 S0 T0 ; sets the minimum extruding and travel feed rate, mm/sec
M107
M115 U3.7.1 ; tell printer latest fw version
G90 ; use absolute coordinates
M83 ; extruder relative mode
M104 S160 ; set extruder temp
M140 S60 ; set bed temp
M190 S60 ; wait for bed temp
M109 S160 ; wait for extruder temp
G28 W ; home all without mesh bed level
G80 ; mesh bed leveling
G1 Y-3.0 F1000.0 ; go outside print area
M104 S215 ; set extruder temp
M109 S215 ; wait for extruder temp
G92 E0.0
G1 X60.0 E9.0 F1000.0 ; intro line
M73 Q0 S44
M73 P0 R44
G1 X100.0 E12.5 F1000.0 ; intro line
G92 E0.0
; with Daniel flow overwritten with this line bullshit M221 S95
M900 K30 ; Filament gcode
G21 ; set units to millimeters
G90 ; use absolute coordinates
M83 ; use relative distances for extrusion
;BEFORE_LAYER_CHANGE
G92 E0.0
;0.1


G1 Z0.100 F3000.000
;AFTER_LAYER_CHANGE
;0.1
G1 E-0.80000 F2100.00000
G1 Z0.700 F3000.000
G1 X110.629 Y91.615
G1 Z0.100
G1 E0.80000 F2100.00000
M204 S1000
G1 F1200
G1 X111.506 Y90.722 E0.02709
G1 X112.338 Y90.129 E0.02212
G1 X113.336 Y89.704 E0.02348
G1 X114.420 Y89.504 E0.02387
G1 X135.646 Y89.509 E0.45949
G1 X136.713 Y89.719 E0.02353
G1 X137.611 Y90.101 E0.02113
G1 X138.352 Y90.599 E0.01932
G1 X139.280 Y91.505 E0.02807
G1 X139.971 Y92.526 E0.02671
G1 X140.293 Y93.324 E0.01862
G1 X140.474 Y94.197 E0.01929
G1 X140.496 Y115.575 E0.46279
G1 X140.343 Y116.498 E0.02025
G1 X140.003 Y117.410 E0.02108
G1 X139.371 Y118.385 E0.02516
G1 X138.494 Y119.278 E0.02709
G1 X137.662 Y119.871 E0.02212
G1 X136.664 Y120.296 E0.02348
G1 X135.581 Y120.496 E0.02386
G1 X114.424 Y120.496 E0.45798
G1 X113.502 Y120.343 E0.02024
G1 X112.590 Y120.003 E0.02108
G1 X111.615 Y119.371 E0.02516
G1 X110.722 Y118.494 E0.02709
G1 X110.129 Y117.662 E0.02212
G1 X109.704 Y116.664 E0.02348
G1 X109.504 Y115.581 E0.02386
G1 X109.504 Y94.424 E0.45798
G1 X109.657 Y93.502 E0.02024
G1 X109.997 Y92.590 E0.02108
G1 X110.596 Y91.665 E0.02386
G1 X111.080 Y91.982 F3000.000
G1 F1200
G1 X111.899 Y91.146 E0.02535
G1 X112.594 Y90.648 E0.01849
G1 X113.532 Y90.249 E0.02208
G1 X114.446 Y90.082 E0.02010
G1 X135.618 Y90.088 E0.45833
G1 X136.514 Y90.264 E0.01977
G1 X137.359 Y90.623 E0.01988
G1 X137.966 Y91.031 E0.01584
G1 X138.854 Y91.897 E0.02684
G1 X139.472 Y92.821 E0.02407
G1 X139.745 Y93.512 E0.01607
G1 X139.902 Y94.283 E0.01704
G1 X139.918 Y115.550 E0.46039
G1 X139.778 Y116.372 E0.01804
G1 X139.474 Y117.174 E0.01857
G1 X138.904 Y118.043 E0.02248
G1 X138.101 Y118.854 E0.02472
G1 X137.406 Y119.352 E0.01849
G1 X136.468 Y119.750 E0.02208
G1 X135.555 Y119.918 E0.02009
G1 X114.449 Y119.918 E0.45688
G1 X113.628 Y119.778 E0.01804
G1 X112.826 Y119.474 E0.01857
G1 X111.957 Y118.904 E0.02248
G1 X111.146 Y118.101 E0.02472
G1 X110.648 Y117.406 E0.01849
G1 X110.250 Y116.468 E0.02208
G1 X110.082 Y115.555 E0.02009
G1 X110.082 Y94.449 E0.45688
G1 X110.222 Y93.628 E0.01804
G1 X110.526 Y92.826 E0.01857
G1 X111.047 Y92.032 E0.02054
G1 X111.528 Y92.353 F3000.000
G1 F1200
G1 X112.292 Y91.572 E0.02365
G1 X112.853 Y91.166 E0.01500
G1 X113.673 Y90.812 E0.01932
G1 X114.473 Y90.661 E0.01764
G1 X135.590 Y90.667 E0.45712
G1 X136.319 Y90.809 E0.01607
G1 X137.064 Y91.121 E0.01748
G1 X137.582 Y91.465 E0.01347
G1 X138.428 Y92.291 E0.02559
G1 X138.946 Y93.063 E0.02012
G1 X139.197 Y93.699 E0.01481
G1 X139.329 Y94.366 E0.01473
G1 X139.339 Y115.525 E0.45803
G1 X139.213 Y116.243 E0.01578
G1 X138.947 Y116.935 E0.01606
G1 X138.440 Y117.697 E0.01981
G1 X137.708 Y118.428 E0.02239
G1 X137.147 Y118.834 E0.01500
G1 X136.327 Y119.188 E0.01932
G1 X135.527 Y119.339 E0.01763
G1 X114.475 Y119.339 E0.45572
G1 X113.757 Y119.213 E0.01578
G1 X113.065 Y118.947 E0.01606
G1 X112.303 Y118.440 E0.01981
G1 X111.572 Y117.708 E0.02239
G1 X111.166 Y117.147 E0.01500
G1 X110.812 Y116.327 E0.01932
G1 X110.661 Y115.527 E0.01763
G1 X110.661 Y94.475 E0.45572
G1 X110.787 Y93.757 E0.01578
G1 X111.053 Y93.065 E0.01606
G1 X111.494 Y92.403 E0.01723
G1 X111.971 Y92.720 F3000.000
G1 F1200
G1 X112.685 Y91.996 E0.02202
G1 X113.117 Y91.682 E0.01156
G1 X113.817 Y91.373 E0.01656
G1 X114.502 Y91.239 E0.01511
G1 X135.560 Y91.245 E0.45585
G1 X136.175 Y91.370 E0.01358
G1 X136.770 Y91.620 E0.01399
G1 X137.199 Y91.900 E0.01108
G1 X138.003 Y92.684 E0.02430
G1 X138.421 Y93.308 E0.01626
G1 X138.635 Y93.838 E0.01239
G1 X138.755 Y94.451 E0.01351
G1 X138.760 Y115.498 E0.45563
G1 X138.650 Y116.110 E0.01347
G1 X138.420 Y116.693 E0.01357
G1 X138.010 Y117.308 E0.01599
G1 X137.315 Y118.004 E0.02130
G1 X136.883 Y118.318 E0.01156
G1 X136.183 Y118.627 E0.01656
G1 X135.498 Y118.761 E0.01510
G1 X114.502 Y118.761 E0.45452
G1 X113.890 Y118.650 E0.01347
G1 X113.307 Y118.420 E0.01357
G1 X112.692 Y118.010 E0.01599
G1 X111.996 Y117.315 E0.02130
G1 X111.682 Y116.883 E0.01156
G1 X111.373 Y116.183 E0.01656
G1 X111.239 Y115.498 E0.01510
G1 X111.239 Y94.502 E0.45452
G1 X111.350 Y93.890 E0.01347
G1 X111.580 Y93.307 E0.01357
G1 X111.938 Y92.770 E0.01395
G1 X112.414 Y93.089 F3000.000
G1 F1200
G1 X113.080 Y92.420 E0.02042
G1 X113.385 Y92.195 E0.00821
G1 X113.966 Y91.933 E0.01380
G1 X114.532 Y91.818 E0.01250
G1 X135.531 Y91.824 E0.45457
G1 X135.980 Y91.915 E0.00994
G1 X136.483 Y92.123 E0.01177
G1 X136.817 Y92.336 E0.00858
G1 X137.577 Y93.077 E0.02298
G1 X137.895 Y93.552 E0.01237
G1 X138.087 Y94.027 E0.01110
G1 X138.182 Y94.530 E0.01108
G1 X138.182 Y115.470 E0.45330
G1 X138.087 Y115.973 E0.01108
G1 X137.895 Y116.449 E0.01110
G1 X137.581 Y116.919 E0.01224
G1 X136.920 Y117.580 E0.02023
G1 X136.615 Y117.805 E0.00821
G1 X136.034 Y118.067 E0.01380
G1 X135.468 Y118.182 E0.01250
G1 X114.530 Y118.182 E0.45326
G1 X114.027 Y118.087 E0.01108
G1 X113.551 Y117.895 E0.01110
G1 X113.081 Y117.581 E0.01224
G1 X112.420 Y116.920 E0.02023
G1 X112.195 Y116.615 E0.00821
G1 X111.933 Y116.034 E0.01380
G1 X111.818 Y115.468 E0.01250
G1 X111.818 Y94.530 E0.45326
G1 X111.913 Y94.027 E0.01108
G1 X112.105 Y93.551 E0.01110
G1 X112.381 Y93.139 E0.01075
G1 X112.848 Y93.470 F3000.000
G1 F1200
G1 X113.472 Y92.847 E0.01909
G1 X113.697 Y92.683 E0.00603
G1 X114.169 Y92.475 E0.01117
G1 X114.560 Y92.397 E0.00864
G1 X135.498 Y92.402 E0.45325
G1 X135.830 Y92.474 E0.00737
G1 X136.201 Y92.628 E0.00870
G1 X136.438 Y92.774 E0.00601
G1 X137.151 Y93.470 E0.02158
G1 X137.373 Y93.800 E0.00861
G1 X137.526 Y94.171 E0.00867
G1 X137.603 Y94.560 E0.00859
G1 X137.603 Y115.440 E0.45200
G1 X137.526 Y115.829 E0.00859
G1 X137.373 Y116.200 E0.00868
G1 X137.152 Y116.530 E0.00859
G1 X136.528 Y117.153 E0.01909
G1 X136.303 Y117.317 E0.00603
G1 X135.831 Y117.525 E0.01117
G1 X135.440 Y117.603 E0.00863
G1 X114.560 Y117.603 E0.45200
G1 X114.171 Y117.526 E0.00859
G1 X113.800 Y117.373 E0.00868
G1 X113.470 Y117.152 E0.00859
G1 X112.847 Y116.528 E0.01909
G1 X112.683 Y116.303 E0.00603
G1 X112.475 Y115.831 E0.01117
G1 X112.397 Y115.440 E0.00863
G1 X112.397 Y94.560 E0.45200
G1 X112.474 Y94.171 E0.00859
G1 X112.627 Y93.800 E0.00868
G1 X112.815 Y93.520 E0.00729
G1 X113.277 Y93.859 F3000.000
G1 F1200
G1 X113.862 Y93.275 E0.01790
G1 X114.003 Y93.175 E0.00373
G1 X114.368 Y93.019 E0.00859
G1 X114.588 Y92.975 E0.00487
G1 X135.465 Y92.981 E0.45192
G1 X135.631 Y93.018 E0.00369
G1 X135.955 Y93.152 E0.00760
G1 X136.100 Y93.244 E0.00371
G1 X136.723 Y93.860 E0.01897
G1 X136.849 Y94.048 E0.00489
G1 X136.981 Y94.366 E0.00745
G1 X137.025 Y94.588 E0.00491
G1 X137.025 Y115.412 E0.45077
G1 X136.981 Y115.634 E0.00491
G1 X136.849 Y115.952 E0.00745
G1 X136.723 Y116.141 E0.00491
G1 X136.138 Y116.725 E0.01790
G1 X135.997 Y116.825 E0.00373
G1 X135.632 Y116.981 E0.00859
G1 X135.412 Y117.025 E0.00487
G1 X114.588 Y117.025 E0.45077
G1 X114.366 Y116.981 E0.00491
G1 X114.048 Y116.849 E0.00745
G1 X113.859 Y116.723 E0.00491
G1 X113.275 Y116.138 E0.01790
G1 X113.175 Y115.997 E0.00373
G1 X113.019 Y115.632 E0.00859
G1 X112.975 Y115.412 E0.00487
G1 X112.975 Y94.588 E0.45077
G1 X113.019 Y94.366 E0.00491
G1 X113.151 Y94.048 E0.00745
G1 X113.244 Y93.909 E0.00361
G1 X113.706 Y94.248 F3000.000
G1 F1200
G1 X114.248 Y93.706 E0.01659
G1 X114.617 Y93.554 E0.00864
G1 X135.383 Y93.554 E0.44954
G1 X135.752 Y93.706 E0.00864
G1 X136.294 Y94.248 E0.01659
G1 X136.446 Y94.617 E0.00864
G1 X136.446 Y115.383 E0.44954
G1 X136.294 Y115.752 E0.00864
G1 X135.752 Y116.294 E0.01659
G1 X135.383 Y116.446 E0.00864
G1 X114.617 Y116.446 E0.44954
G1 X114.248 Y116.294 E0.00864
G1 X113.706 Y115.752 E0.01659
G1 X113.554 Y115.383 E0.00864
G1 X113.554 Y94.617 E0.44954
G1 X113.673 Y94.298 E0.00736
G1 X114.176 Y94.597 F3000.000
G1 F1200
G1 X114.597 Y94.176 E0.01287
G1 X114.703 Y94.132 E0.00249
G1 X135.297 Y94.132 E0.44582
G1 X135.403 Y94.176 E0.00249
G1 X135.824 Y94.597 E0.01287
G1 X135.868 Y94.703 E0.00249
G1 X135.868 Y115.297 E0.44582
G1 X135.824 Y115.403 E0.00249
G1 X135.403 Y115.824 E0.01287
G1 X135.297 Y115.868 E0.00249
G1 X114.703 Y115.868 E0.44582
G1 X114.597 Y115.824 E0.00249
G1 X114.176 Y115.403 E0.01287
G1 X114.132 Y115.297 E0.00249
G1 X114.132 Y94.703 E0.44582
G1 X114.153 Y94.652 E0.00119
G1 X114.711 Y94.880 F3000.000
G1 F1200
G1 X114.880 Y94.711 E0.00519
G1 X135.120 Y94.711 E0.43814
G1 X135.289 Y94.880 E0.00519
G1 X135.289 Y115.120 E0.43814
G1 X135.120 Y115.289 E0.00519
G1 X114.880 Y115.289 E0.43814
G1 X114.711 Y115.120 E0.00519
G1 X114.711 Y94.940 E0.43684
G1 X115.300 Y95.300 F3000.000
G1 F1200
G1 X134.700 Y95.300 E0.41996
G1 X134.700 Y114.700 E0.41996
G1 X115.300 Y114.700 E0.41996
G1 X115.300 Y95.360 E0.41866
M106 S255
;BEFORE_LAYER_CHANGE
G92 E0.0
;0.2


G1 Z0.200 F3000.000
;AFTER_LAYER_CHANGE
;0.2
M204 S800
G1 F900
G1 X115.300 Y95.300 E0.00130
G1 X134.700 Y95.300 E0.41996
G1 X134.700 Y114.700 E0.41996
M73 Q2 S43
M73 P2 R43
G1 X115.300 Y114.700 E0.41996
G1 X115.300 Y95.420 E0.41737
M204 S1000
;BEFORE_LAYER_CHANGE
G92 E0.0
;0.3


G1 Z0.300 F3000.000
;AFTER_LAYER_CHANGE
;0.3
M204 S800
G1 F900
G1 X115.300 Y95.300 E0.00260
G1 X134.700 Y95.300 E0.41996
G1 X134.700 Y114.700 E0.41996
G1 X115.300 Y114.700 E0.41996
G1 X115.300 Y95.480 E0.41607
M204 S1000
;BEFORE_LAYER_CHANGE
G92 E0.0
;0.4


G1 Z0.300 F3000.000
;AFTER_LAYER_CHANGE
;0.4
M204 S800
G1 F900
G1 Z0.300 X115.300 Y95.300 E0.00390
G1 Z0.325 X134.700 Y95.300 E0.41996
G1 Z0.350 X134.700 Y114.700 E0.41996
G1 Z0.375 X115.300 Y114.700 E0.41996
G1 Z0.400 X115.300 Y95.480 E0.41607
M204 S1000
;BEFORE_LAYER_CHANGE
G92 E0.0
;0.5


G1 Z0.400 F3000.000
;AFTER_LAYER_CHANGE
;0.5
M204 S800
G1 F900
G1 Z0.400 X115.300 Y95.300 E0.00390
G1 Z0.425 X134.700 Y95.300 E0.41996
G1 Z0.450 X134.700 Y114.700 E0.41996
G1 Z0.475 X115.300 Y114.700 E0.41996
G1 Z0.500 X115.300 Y95.480 E0.41607
M204 S1000
;BEFORE_LAYER_CHANGE
G92 E0.0
;0.6


G1 Z0.500 F3000.000
;AFTER_LAYER_CHANGE
;0.6
M204 S800
G1 F900
G1 Z0.500 X115.300 Y95.300 E0.00390
G1 Z0.525 X134.700 Y95.300 E0.41996
G1 Z0.550 X134.700 Y114.700 E0.41996
G1 Z0.575 X115.300 Y114.700 E0.41996
G1 Z0.600 X115.300 Y95.480 E0.41607
M204 S1000
;BEFORE_LAYER_CHANGE
G92 E0.0
;0.7


G1 Z0.600 F3000.000
;AFTER_LAYER_CHANGE
;0.7
M204 S800
G1 F900
G1 Z0.600 X115.300 Y95.300 E0.00390
G1 Z0.625 X134.700 Y95.300 E0.41996
G1 Z0.650 X134.700 Y114.700 E0.41996
G1 Z0.675 X115.300 Y114.700 E0.41996
G1 Z0.700 X115.300 Y95.480 E0.41607
M204 S1000
;BEFORE_LAYER_CHANGE
G92 E0.0
;0.8


G1 Z0.700 F3000.000
;AFTER_LAYER_CHANGE
;0.8
M204 S800
G1 F900
G1 Z0.700 X115.300 Y95.300 E0.00390
G1 Z0.725 X134.700 Y95.300 E0.41996
G1 Z0.750 X134.700 Y114.700 E0.41996
G1 Z0.775 X115.300 Y114.700 E0.41996
G1 Z0.800 X115.300 Y95.480 E0.41607
M204 S1000
;BEFORE_LAYER_CHANGE
G92 E0.0
;0.9


G1 Z0.800 F3000.000
;AFTER_LAYER_CHANGE
;0.9
M204 S800
G1 F900
G1 Z0.800 X115.300 Y95.300 E0.00390
G1 Z0.825 X134.700 Y95.300 E0.41996
G1 Z0.850 X134.700 Y114.700 E0.41996
G1 Z0.875 X115.300 Y114.700 E0.41996
G1 Z0.900 X115.300 Y95.480 E0.41607
M204 S1000
;BEFORE_LAYER_CHANGE
G92 E0.0
;1


G1 Z0.900 F3000.000
;AFTER_LAYER_CHANGE
;1
M204 S800
G1 F900
G1 Z0.900 X115.300 Y95.300 E0.00390
G1 Z0.925 X134.700 Y95.300 E0.41996
G1 Z0.950 X134.700 Y114.700 E0.41996
G1 Z0.975 X115.300 Y114.700 E0.41996
G1 Z1.000 X115.300 Y95.480 E0.41607
M204 S1000
;BEFORE_LAYER_CHANGE
G92 E0.0
;1.1


G1 Z1.000 F3000.000
;AFTER_LAYER_CHANGE
;1.1
M204 S800
G1 F900
G1 Z1.000 X115.300 Y95.300 E0.00390
G1 Z1.025 X134.700 Y95.300 E0.41996
G1 Z1.050 X134.700 Y114.700 E0.41996
G1 Z1.075 X115.300 Y114.700 E0.41996
G1 Z1.100 X115.300 Y95.480 E0.41607
M204 S1000
;BEFORE_LAYER_CHANGE
G92 E0.0
;1.2


G1 Z1.100 F3000.000
;AFTER_LAYER_CHANGE
;1.2
M204 S800
G1 F900
G1 Z1.100 X115.300 Y95.300 E0.00390
G1 Z1.125 X134.700 Y95.300 E0.41996
G1 Z1.150 X134.700 Y114.700 E0.41996
G1 Z1.175 X115.300 Y114.700 E0.41996
G1 Z1.200 X115.300 Y95.480 E0.41607
M204 S1000
;BEFORE_LAYER_CHANGE
G92 E0.0
;1.3


G1 Z1.200 F3000.000
;AFTER_LAYER_CHANGE
;1.3
M204 S800
G1 F900
G1 Z1.200 X115.300 Y95.300 E0.00390
G1 Z1.225 X134.700 Y95.300 E0.41996
G1 Z1.250 X134.700 Y114.700 E0.41996
G1 Z1.275 X115.300 Y114.700 E0.41996
G1 Z1.300 X115.300 Y95.480 E0.41607
M204 S1000
;BEFORE_LAYER_CHANGE
G92 E0.0
;1.4


G1 Z1.300 F3000.000
;AFTER_LAYER_CHANGE
;1.4
M204 S800
G1 F900
G1 Z1.300 X115.300 Y95.300 E0.00390
G1 Z1.325 X134.700 Y95.300 E0.41996
M73 Q4 S42
M73 P4 R42
G1 Z1.350 X134.700 Y114.700 E0.41996
G1 Z1.375 X115.300 Y114.700 E0.41996
G1 Z1.400 X115.300 Y95.480 E0.41607
M204 S1000
;BEFORE_LAYER_CHANGE
G92 E0.0
;1.5


G1 Z1.400 F3000.000
;AFTER_LAYER_CHANGE
;1.5
M204 S800
G1 F900
G1 Z1.400 X115.300 Y95.300 E0.00390
G1 Z1.425 X134.700 Y95.300 E0.41996
G1 Z1.450 X134.700 Y114.700 E0.41996
G1 Z1.475 X115.300 Y114.700 E0.41996
G1 Z1.500 X115.300 Y95.480 E0.41607
M204 S1000
;BEFORE_LAYER_CHANGE
G92 E0.0
;1.6


G1 Z1.500 F3000.000
;AFTER_LAYER_CHANGE
;1.6
M204 S800
G1 F900
G1 Z1.500 X115.300 Y95.300 E0.00390
G1 Z1.525 X134.700 Y95.300 E0.41996
G1 Z1.550 X134.700 Y114.700 E0.41996
G1 Z1.575 X115.300 Y114.700 E0.41996
G1 Z1.600 X115.300 Y95.480 E0.41607
M204 S1000
;BEFORE_LAYER_CHANGE
G92 E0.0
;1.7


G1 Z1.600 F3000.000
;AFTER_LAYER_CHANGE
;1.7
M204 S800
G1 F900
G1 Z1.600 X115.300 Y95.300 E0.00390
G1 Z1.625 X134.700 Y95.300 E0.41996
G1 Z1.650 X134.700 Y114.700 E0.41996
G1 Z1.675 X115.300 Y114.700 E0.41996
G1 Z1.700 X115.300 Y95.480 E0.41607
M204 S1000
;BEFORE_LAYER_CHANGE
G92 E0.0
;1.8


G1 Z1.700 F3000.000
;AFTER_LAYER_CHANGE
;1.8
M204 S800
G1 F900
G1 Z1.700 X115.300 Y95.300 E0.00390
G1 Z1.725 X134.700 Y95.300 E0.41996
G1 Z1.750 X134.700 Y114.700 E0.41996
G1 Z1.775 X115.300 Y114.700 E0.41996
G1 Z1.800 X115.300 Y95.480 E0.41607
M204 S1000
;BEFORE_LAYER_CHANGE
G92 E0.0
;1.9


G1 Z1.800 F3000.000
;AFTER_LAYER_CHANGE
;1.9
M204 S800
G1 F900
G1 Z1.800 X115.300 Y95.300 E0.00390
G1 Z1.825 X134.700 Y95.300 E0.41996
G1 Z1.850 X134.700 Y114.700 E0.41996
G1 Z1.875 X115.300 Y114.700 E0.41996
G1 Z1.900 X115.300 Y95.480 E0.41607
M204 S1000
;BEFORE_LAYER_CHANGE
G92 E0.0
;2


G1 Z1.900 F3000.000
;AFTER_LAYER_CHANGE
;2
M204 S800
G1 F900
G1 Z1.900 X115.300 Y95.300 E0.00390
G1 Z1.925 X134.700 Y95.300 E0.41996
G1 Z1.950 X134.700 Y114.700 E0.41996
G1 Z1.975 X115.300 Y114.700 E0.41996
G1 Z2.000 X115.300 Y95.480 E0.41607
M204 S1000
;BEFORE_LAYER_CHANGE
G92 E0.0
;2.1


G1 Z2.000 F3000.000
;AFTER_LAYER_CHANGE
;2.1
M204 S800
G1 F900
G1 Z2.000 X115.300 Y95.300 E0.00390
G1 Z2.025 X134.700 Y95.300 E0.41996
G1 Z2.050 X134.700 Y114.700 E0.41996
G1 Z2.075 X115.300 Y114.700 E0.41996
G1 Z2.100 X115.300 Y95.480 E0.41607
M204 S1000
;BEFORE_LAYER_CHANGE
G92 E0.0
;2.2


G1 Z2.100 F3000.000
;AFTER_LAYER_CHANGE
;2.2
M204 S800
G1 F900
G1 Z2.100 X115.300 Y95.300 E0.00390
G1 Z2.125 X134.700 Y95.300 E0.41996
G1 Z2.150 X134.700 Y114.700 E0.41996
G1 Z2.175 X115.300 Y114.700 E0.41996
G1 Z2.200 X115.300 Y95.480 E0.41607
